svg/file/link_line.svg

<?xml version="1.0" encoding="UTF-8"?>
<svg width="24px" height="24px" viewBox="0 0 24 24" version="1.1" xmlns="http://www.w3.org/2000/svg" xmlns:xlink="http://www.w3.org/1999/xlink">
    <title>link_line</title>
    <g id="页面-1" stroke="none" stroke-width="1" fill="none" fill-rule="evenodd">
        <g id="File" transform="translate(-720.000000, 0.000000)" fill-rule="nonzero">
            <g id="link_line" transform="translate(720.000000, 0.000000)">
                 <path d="M24,0 L24,24 L0,24 L0,0 L24,0 Z M12.5934901,23.257841 L12.5819402,23.2595131 L12.5108777,23.2950439 L12.4918791,23.2987469 L12.4918791,23.2987469 L12.4767152,23.2950439 L12.4056548,23.2595131 C12.3958229,23.2563662 12.3870493,23.2590235 12.3821421,23.2649074 L12.3780323,23.275831 L12.360941,23.7031097 L12.3658947,23.7234994 L12.3769048,23.7357139 L12.4804777,23.8096931 L12.4953491,23.8136134 L12.4953491,23.8136134 L12.5071152,23.8096931 L12.6106902,23.7357139 L12.6232938,23.7196733 L12.6232938,23.7196733 L12.6266527,23.7031097 L12.609561,23.275831 C12.6075724,23.2657013 12.6010112,23.2592993 12.5934901,23.257841 L12.5934901,23.257841 Z M12.8583906,23.1452862 L12.8445485,23.1473072 L12.6598443,23.2396597 L12.6498822,23.2499052 L12.6498822,23.2499052 L12.6471943,23.2611114 L12.6650943,23.6906389 L12.6699349,23.7034178 L12.6699349,23.7034178 L12.678386,23.7104931 L12.8793402,23.8032389 C12.8914285,23.8068999 12.9022333,23.8029875 12.9078286,23.7952264 L12.9118235,23.7811639 L12.8776777,23.1665331 C12.8752882,23.1545897 12.8674102,23.1470016 12.8583906,23.1452862 L12.8583906,23.1452862 Z M12.1430473,23.1473072 C12.1332178,23.1423925 12.1221763,23.1452606 12.1156365,23.1525954 L12.1099173,23.1665331 L12.0757714,23.7811639 C12.0751323,23.7926639 12.0828099,23.8018602 12.0926481,23.8045676 L12.108256,23.8032389 L12.3092106,23.7104931 L12.3186497,23.7024347 L12.3186497,23.7024347 L12.3225043,23.6906389 L12.340401,23.2611114 L12.337245,23.2485176 L12.337245,23.2485176 L12.3277531,23.2396597 L12.1430473,23.1473072 Z" id="MingCute" fill-rule="nonzero"></path>
                <path d="M10.232,10.2313 C12.1255273,8.33780182 15.1597473,8.28042309 17.1223163,10.0591638 L17.3031,10.2313 L20.1315,13.0597 C22.0842,15.0123 22.0842,18.1781 20.1315,20.1307 C18.2380697,22.0242273 15.2038526,22.0816069 13.2412837,20.3028388 L13.0605,20.1307 L10.9392,18.0094 C10.5486,17.6189 10.5486,16.9857 10.9392,16.5952 C11.2996615,16.2347385 11.8668355,16.2070107 12.2591776,16.5120166 L12.3534,16.5952 L14.4747,18.7165 C15.6463,19.8881 17.5458,19.8881 18.7173,18.7165 C19.842036,17.59186 19.8870254,15.7962952 18.8522683,14.6178927 L18.7173,14.4739 L15.8889,11.6455 C14.7173,10.4739 12.8179,10.4739 11.6464,11.6455 C11.2558,12.036 10.6227,12.036 10.2321,11.6455 C9.84163,11.255 9.84157,10.6218 10.232,10.2313 Z M3.86803,3.8673 C5.7614797,1.9738503 8.79572557,1.91647304 10.7583144,3.69516821 L10.9391,3.8673 L13.0604,5.98862 C13.4509,6.37914 13.4509,7.01231 13.0604,7.402835 C12.6999385,7.76331962 12.1326793,7.7910492 11.7404027,7.48602376 L11.6462,7.402835 L9.52488,5.28151 C8.35331,4.10994 6.45382,4.10994 5.28224,5.28151 C4.1575328,6.4062172 4.11254451,8.20178469 5.14727514,9.38016071 L5.28224,9.52415 L8.11067,12.3526 C9.28224,13.5242 11.1818,13.5241 12.3533,12.3526 C12.7438,11.962 13.377,11.962 13.7675,12.3526 C14.1581,12.7431 14.158,13.3763 13.7675,13.7668 C11.8740697,15.6602303 8.83983381,15.717607 6.87724554,13.93893 L6.69646,13.7668 L3.86803,10.9384 C1.91541,8.98574 1.91541,5.81992 3.86803,3.8673 Z" id="形状" fill="#09244B"></path>
            </g>
        </g>
    </g>
</svg>

<svg xmlns="http://www.w3.org/2000/svg" width="24" height="24"><g fill="none" fill-rule="nonzero"><path d="M24 0v24H0V0h24ZM12.593 23.258l-.011.002-.071.035-.02.004-.014-.004-.071-.035c-.01-.004-.019-.001-.024.005l-.004.01-.017.428.005.02.01.013.104.074.015.004.012-.004.104-.074.012-.016.004-.017-.017-.427c-.002-.01-.009-.017-.017-.018Zm.265-.113-.013.002-.185.093-.01.01-.003.011.018.43.005.012.008.007.201.093c.012.004.023 0 .029-.008l.004-.014-.034-.614c-.003-.012-.01-.02-.02-.022Zm-.715.002a.023.023 0 0 0-.027.006l-.006.014-.034.614c0 .012.007.02.017.024l.015-.002.201-.093.01-.008.004-.011.017-.43-.003-.012-.01-.01-.184-.092Z"/><path fill="#09244B" d="M10.232 10.231a5 5 0 0 1 6.89-.172l.181.172 2.828 2.829a5 5 0 0 1-6.89 7.243l-.18-.172-2.122-2.122a1 1 0 0 1 1.32-1.497l.094.083 2.122 2.122a3 3 0 0 0 4.377-4.1l-.135-.143-2.828-2.828a3 3 0 0 0-4.243 0 1 1 0 0 1-1.414-1.415ZM3.868 3.867a5 5 0 0 1 6.89-.172l.181.172L13.06 5.99a1 1 0 0 1-1.32 1.497l-.094-.083-2.121-2.121A3 3 0 0 0 5.147 9.38l.135.144 2.829 2.829a3 3 0 0 0 4.242 0 1 1 0 1 1 1.415 1.414 5 5 0 0 1-6.89.172l-.182-.172-2.828-2.829a5 5 0 0 1 0-7.07Z"/></g></svg>
